**kern
*clefF4
*k[]
*M2/4
=1
4EE#X 4GG#X 4BB 4C#X
8.EE#L 8.GG# 8.BB 8.C#
16EE#Jk 16GG# 16BB 16C#
=2
*^
4C	2EE#X 2GG#X 2BB#X
4D	.
=3	=3
8r	2FF 2GGn 2BB
8D#X	.
8AL	.
8D#J	.
*v	*v
=4
4FF 4GG 4BB 4D#X
4EE 4GG 4Cn 4E
=5
4GG#X 4BB 4Dn 4E
==6
4E-X 4F 4A-X 4c-X
8.E-L 8.F 8.A- 8.c-
16E-Jk 16F 16A- 16c-
=7
*^
2F-X 2A-X 2c-X	4E
.	4D
!!linebreak:original
=8	=8
2F 2A 2B	8r
.	8D-X
.	8GGL
.	8D-J
*v	*v
=9
4D-X 4F 4A 4B
4C 4En 4A 4c
=10
4C 4Dn 4F 4A-X
==
*-
!!!system-decoration: [(s1
